icons/chart_pie.svg

<svg width="48" height="48" viewBox="0 0 48 48" fill="none" xmlns="http://www.w3.org/2000/svg">
<path fill-rule="evenodd" clip-rule="evenodd" d="M4 24C4 12.9543 12.9543 4 24 4C35.0457 4 44 12.9543 44 24C44 35.0457 35.0457 44 24 44C12.9543 44 4 35.0457 4 24ZM23 6.02731C13.524 6.54619 6 14.3944 6 24C6 26.9223 6.69639 29.6819 7.93226 32.122L23 23.4227V6.02731ZM39.0662 14.1469C36.0221 9.50178 30.8879 6.34971 25 6.02731V22.268L39.0662 14.1469ZM24 42C17.6961 42 12.149 38.7594 8.93384 33.8532L40.0677 15.878C41.3036 18.3181 42 21.0777 42 24C42 33.9411 33.9411 42 24 42Z" fill="black"/>
</svg>

<svg
  xmlns="http://www.w3.org/2000/svg"
  width="24"
  height="24"
  viewBox="0 0 24 24"
  fill="none"
  stroke="currentColor"
  stroke-width="2"
  stroke-linecap="round"
  stroke-linejoin="round"
>
  <path
    fill-rule="evenodd"
    d="M4 24C4 12.954 12.954 4 24 4s20 8.954 20 20-8.954 20-20 20S4 35.046 4 24M23 6.027C13.524 6.547 6 14.394 6 24c0 2.922.696 5.682 1.932 8.122L23 23.422zm16.066 8.12C36.022 9.502 30.888 6.35 25 6.027v16.241zM24 42c-6.304 0-11.851-3.24-15.066-8.147l31.134-17.975A17.9 17.9 0 0 1 42 24c0 9.941-8.059 18-18 18"
    clip-rule="evenodd"
  />
</svg>
